X:1844
T:Bourree droite du Pays Fort
R:Bourree
C:trad.
A:Massif Central
O:France
M:3/8
L:1/8
Q:1/4=110
K:G
e|:dBd|g2b|a/2g/2fe|edd|dBd|g2b|a/2g/2fa|g2d:|
|:g/2g/2gg|fff|e/2e/2ef|edd|g/2g/2gg|f/2f/2ff|e/2f/2ef|g2 z:|


